X:1
T:Louella, LM
T:Louella, LM
T:Harmonia Sacra, 1867
T:Public Domain Courtesy of the Cyber Hymnal™
C:Harmonia Sacra, 1867
Z:Public Domain
Z:Courtesy of the Cyber Hymnal™
%%score ( 1 2 ) ( 3 4 )
L:1/8
Q:1/4=130
M:3/4
K:Bb
V:1 treble 
V:2 treble 
V:3 bass 
V:4 bass 
V:1
 [DF]2 | ([DF]2 [EG]2) [DF]2 | [B,D]4 [DF]2 | ([DF]2 [EG]2) [DF]2 | [DB]4 [DF]2 | %5
 ([DF]2 [EG]2) [DF]2 | (F2 B2) (cB) | [FA]4 [=EG]2 | F4 [DF]2 | ([EF]2 [FA]2) [Ec]2 | %10
 ([Ec]2 [DB]2) [FA]2 | ([GB]2 [FA]2) [EG]2 | [DF]4 [DF]2 | (F2 B2) [Fc]2 | [Fd]4 [FB]2 | %15
 (c2 z) A2 x3 | [DB]4 |] %17
V:2
 x2 | x6 | x6 | x6 | x6 | x6 | D4 G2 | x6 | F4 x2 | x6 | x6 | x6 | x6 | F4 x2 | x6 | %15
 E3 (B2 D) (CE) | x4 |] %17
V:3
 [B,,B,]2 | [B,,B,]4 [B,,B,]2 | [B,,F,]4 [B,,B,]2 | [B,,B,]4 [B,,B,]2 | [B,,F,]4 [B,,B,]2 | %5
 [B,,B,]4 [B,,B,]2 | [B,,B,]4 [G,,D]2 | [C,C]4 [C,B,]2 | [F,A,]4 z2 | z6 | z6 | z6 | z4 [B,,B,]2 | %13
 ([B,,D]2 [D,B,]2) [F,A,]2 | B,4 [D,B,]2 | [E,G,]2 F,2 [F,,F,]2 x2 | [B,,F,]4 |] %17
V:4
 x2 | x6 | x6 | x6 | x6 | x6 | x6 | x6 | x6 | x6 | x6 | x6 | x6 | x6 | B,4 x2 | x2 F,2 x4 | x4 |] %17

